picto/ramp-down-left-framed.svg

<svg class="color-immutable" width="30" height="30" viewBox="0 0 30 30" fill="none" xmlns="http://www.w3.org/2000/svg"><path d="M29.9999 0H0V29.9999H29.9999V0Z" fill="#2D327D"/><path d="M25.4999 2.99999C26.3249 2.99999 26.9999 3.67499 26.9999 4.49999V25.4999C26.9999 26.3249 26.3249 26.9999 25.4999 26.9999H4.49999C3.67499 26.9999 2.99999 26.3249 2.99999 25.4999V4.49999C2.99999 3.67499 3.67499 2.99999 4.49999 2.99999H25.4999ZM25.4999 2.62499H4.49999C3.46612 2.62499 2.62499 3.46612 2.62499 4.49999V25.4999C2.62499 26.5338 3.46612 27.3749 4.49999 27.3749H25.4999C26.5338 27.3749 27.3749 26.5338 27.3749 25.4999V4.49999C27.3749 3.46612 26.5338 2.62499 25.4999 2.62499Z" fill="white"/><path d="M23.9997 24.0005H9.74949V23.4013L23.9997 21.0764V24.0005Z" fill="white"/><path d="M6.51476 14.6041C6.23599 14.6041 6.00926 14.3772 6.00926 14.0978C6.00926 13.8948 6.13054 13.7114 6.31714 13.632L7.27496 13.2252V14.3253L6.71321 14.5638C6.65081 14.5905 6.58271 14.6041 6.51476 14.6041Z" fill="white"/><path d="M7.87492 16.0513V10.4669C7.87492 9.63905 8.547 8.96698 9.37507 8.96698C9.86339 8.96698 10.3204 9.20458 10.6021 9.60365L12.1633 11.8229C12.252 11.9494 12.2999 12.0999 12.2999 12.2547V15.2439C12.2999 15.5235 12.073 15.7503 11.7936 15.7503C11.5141 15.7503 11.2873 15.5235 11.2873 15.2439V12.4683L10.5749 11.4557V19.2003L11.8982 21.4592C11.9628 21.5689 11.996 21.6929 11.996 21.8192C11.996 22.2125 11.677 22.5322 11.2838 22.5322C11.0306 22.5322 10.7969 22.3976 10.6693 22.1799L9.17812 19.6344C9.11085 19.5199 9.07477 19.3888 9.07477 19.2557V16.9717L7.42478 19.8112V23.1003C7.42478 23.4935 7.10565 23.8125 6.71243 23.8125C6.3192 23.8125 6.00023 23.4935 6.00023 23.1003V19.4803C6.00023 19.3479 6.03488 19.2182 6.10148 19.1037L7.87492 16.0513Z" fill="white"/><path d="M9.16145 8.60608C8.43732 8.60608 7.8491 8.01831 7.8491 7.29351C7.8491 6.56901 8.43732 5.98116 9.16145 5.98116C9.88617 5.98116 10.4736 6.56901 10.4736 7.29351C10.4736 8.01823 9.88617 8.60608 9.16145 8.60608Z" fill="white"/></svg>

<svg class="color-immutable" width="30" height="30" viewBox="0 0 30 30" fill="none" xmlns="http://www.w3.org/2000/svg"><path d="M30 0H0v30h30V0Z" fill="#2D327D"/><path d="M25.5 3c.825 0 1.5.675 1.5 1.5v21c0 .825-.675 1.5-1.5 1.5h-21c-.825 0-1.5-.675-1.5-1.5v-21C3 3.675 3.675 3 4.5 3h21Zm0-.375h-21A1.877 1.877 0 0 0 2.625 4.5v21c0 1.034.841 1.875 1.875 1.875h21a1.877 1.877 0 0 0 1.875-1.875v-21A1.877 1.877 0 0 0 25.5 2.625Z" fill="#fff"/><path d="M24 24H9.75v-.599L24 21.076V24ZM6.515 14.604a.506.506 0 0 1-.198-.972l.958-.407v1.1l-.562.239a.506.506 0 0 1-.198.04Z" fill="#fff"/><path d="M7.875 16.051v-5.584a1.5 1.5 0 0 1 2.727-.863l1.561 2.219a.752.752 0 0 1 .137.432v2.989a.507.507 0 0 1-1.013 0v-2.776l-.712-1.012V19.2l1.323 2.26a.713.713 0 0 1-1.229.72l-1.49-2.546a.749.749 0 0 1-.104-.378v-2.284l-1.65 2.84V23.1A.712.712 0 0 1 6 23.1v-3.62c0-.132.035-.262.101-.376l1.774-3.053ZM9.161 8.606a1.313 1.313 0 1 1 .002-2.626 1.313 1.313 0 0 1-.002 2.626Z" fill="#fff"/></svg>
